X: 152
T:Pasodoble do Carballal
M:2/4
L:1/16
Q:200
C:Benigno Méndez
R:Pasodoble
K:C
E2F2 |: G4 A2B2 | c4 B2c2| A2G2- G4- | G4 E2F2|
G4A2G2 | B4 A2G2| F8- | F4 D2E2 |F4 G2A2| B4 A2B2 |
G2F2- F4- | F4 D2E2 | F4 G2F2 | A4 G2F2 |E8- |1 E4 E2F2 :|2
|: E4 G2A2 | GAGF E4-| E4 F2G2 | ABAG F4- | F4 G2A2 | B4 A2G2 |
A4 G2F2 | GAGF E4-| E4 G2A2 | GAGF E4- | E4 F2G2 | ABAG | F4- |
F4 G2A2 | B4 A2G2 | A4 G2F2 | E8-  :| E4 ||

